icons/compasses-2-fill.svg

<svg viewBox="0 0 24 24" fill="currentColor" xmlns="http://www.w3.org/2000/svg"><path d="M16.3303 13.497C17.9562 12.2151 19 10.2278 19 7.9967H21C21 10.9687 19.5595 13.6043 17.3385 15.2432L19.8661 19.6211C20.4183 20.5776 20.0906 21.8008 19.134 22.3531L15.6073 16.2447C14.5029 16.7283 13.2828 16.9967 12 16.9967C10.7172 16.9967 9.49712 16.7283 8.39278 16.2447L4.86606 22.3531C3.90947 21.8008 3.58172 20.5776 4.13401 19.6211L9.19751 10.8508C8.45844 10.125 8.00003 9.11439 8.00003 7.9967C8.00003 6.13286 9.2748 4.56676 11 4.12272V1.9967H13V4.12272C14.7253 4.56676 16 6.13286 16 7.9967C16 9.11439 15.5416 10.125 14.8025 10.8508L16.3303 13.497ZM14.599 14.4983L13.071 11.8517C12.7302 11.9462 12.371 11.9967 12 11.9967C11.6291 11.9967 11.2699 11.9462 10.929 11.8517L9.40101 14.4983C10.2046 14.8198 11.0817 14.9967 12 14.9967C12.9184 14.9967 13.7955 14.8198 14.599 14.4983ZM12 8.9967C12.5523 8.9967 13 8.54899 13 7.9967C13 7.44442 12.5523 6.9967 12 6.9967C11.4477 6.9967 11 7.44442 11 7.9967C11 8.54899 11.4477 8.9967 12 8.9967Z"/></svg>

<svg xmlns="http://www.w3.org/2000/svg" viewBox="0 0 24 24">
    <g>
        <path fill="none" d="M0 0h24v24H0z"/>
        <path d="M16.33 13.5A6.988 6.988 0 0 0 19 8h2a8.987 8.987 0 0 1-3.662 7.246l2.528 4.378a2 2 0 0 1-.732 2.732l-3.527-6.108A8.97 8.97 0 0 1 12 17a8.97 8.97 0 0 1-3.607-.752l-3.527 6.108a2 2 0 0 1-.732-2.732l5.063-8.77A4.002 4.002 0 0 1 11 4.126V2h2v2.126a4.002 4.002 0 0 1 1.803 6.728L16.33 13.5zM14.6 14.502l-1.528-2.647a4.004 4.004 0 0 1-2.142 0l-1.528 2.647c.804.321 1.68.498 2.599.498.918 0 1.795-.177 2.599-.498zM12 9a1 1 0 1 0 0-2 1 1 0 0 0 0 2z"/>
    </g>
</svg>
